src/images/landing/logos/4.svg

<svg width="160" height="50" viewBox="0 0 160 50" fill="none" xmlns="http://www.w3.org/2000/svg">
<g clip-path="url(#clip0)">
<path d="M100.571 45.3654C98.6182 34.4173 98.3665 21.2595 99.8245 6.25794L99.9528 4.94034H98.6559H94.9056L94.8101 5.85768H94.0274H92.0244H91.1363L90.8946 6.73033C90.5216 8.07638 90.2591 9.53011 90.0224 10.9757C90.0204 10.6994 90.0184 10.4241 90.0184 10.1518C90.0184 9.92021 90.0194 9.69163 90.0214 9.46509L90.0303 8.25619H86.5524L86.6867 7.33884H85.3242H81.7448L81.5012 8.20844C81.35 8.74686 81.2088 9.29036 81.0735 9.83894C79.8274 5.66568 76.7155 3 72.6697 3C70.2082 3 67.9606 4.06465 66.3405 5.99686C64.7432 7.90266 63.8631 10.5551 63.8631 13.4656C63.8631 14.9752 64.0908 17.0639 64.7025 18.7726C64.6398 18.7289 64.5234 18.6487 64.5234 18.6487L63.8372 19.3121C61.506 21.5663 59.8382 25.0782 59.2594 28.9487C58.4428 34.4132 59.5647 39.3849 62.417 42.9476C64.3673 45.3827 66.9591 46.8527 69.527 46.9787C73.0506 47.1524 75.8701 46.235 77.9079 44.252C78.5872 43.5907 79.173 42.8095 79.6633 41.9196C79.8711 43.7299 80.079 44.9398 80.2043 45.3258L80.5076 46.2564L82.1178 46.0542C83.0238 45.9394 83.6215 45.8632 84.2879 45.8632H85.6802L85.6593 45.7373C86.5952 45.7921 88.3088 45.9851 88.9851 46.0674C88.9851 46.0674 90.5027 46.2503 90.5475 46.2564C90.5535 46.3082 90.5684 46.4453 90.5684 46.4453L91.7031 46.3539C92.465 46.2919 92.8101 46.3244 93.2477 46.3651C93.5629 46.3945 93.921 46.4281 94.4421 46.4281H94.5893L94.5992 46.4992H95.6166C96.103 46.4992 97.7261 46.5815 99.2755 46.7724L100.857 46.9675L100.571 45.3654ZM77.7359 19.1343C77.7369 19.1333 77.7428 19.117 77.7428 19.117C77.9228 18.7168 78.0372 18.2505 78.0989 17.7324C78.0999 17.7324 78.1357 17.7334 78.1357 17.7334L79.6643 17.7679C79.4355 19.6737 79.2744 21.5805 79.169 23.4528C78.5812 21.5683 78.0332 19.9582 77.7359 19.1343Z" fill="white"/>
<path d="M85.8797 10.3733C85.8797 10.3733 82.6325 27.8709 85.2581 44.5233C86.2079 44.5233 89.1268 44.8758 89.1268 44.8758C89.1268 44.8758 88.379 40.796 88.6435 38.9491C89.818 40.7137 90.923 39.3728 90.923 39.3728C90.923 39.3728 91.2681 41.9836 91.6132 45.1582C93.0463 45.0424 93.2711 45.2283 94.4456 45.2283C94.1174 41.8241 93.2542 36.1971 94.7907 8.96225C92.2348 24.0613 92.3044 37.6793 89.1955 37.1845C84.4286 33.1626 85.8797 10.3733 85.8797 10.3733Z" fill="#1E1E20"/>
<path d="M86.5682 9.456H88.8477C88.8477 9.456 88.779 18.4171 89.6075 18.4171C90.8019 15.5869 90.9889 10.797 92.0252 7.05749C92.5772 7.05749 94.0282 7.05749 94.0282 7.05749C94.0282 7.05749 91.4155 35.5622 89.5389 34.7861C85.6701 30.0592 86.5682 9.456 86.5682 9.456Z" fill="#1E1E20"/>
<path d="M95.9635 6.14015C96.9999 6.14015 96.6547 6.14015 98.6577 6.14015C97.6911 16.0887 96.8616 31.2589 99.4176 45.5819C97.7587 45.3777 96.1018 45.2995 95.6184 45.2995C94.237 35.4911 94.0869 24.2656 95.9635 6.14015Z" fill="#1E1E20"/>
<path d="M85.3253 8.53925C84.289 8.53925 83.7967 8.53925 82.6311 8.53925C80.5316 16.0283 80.0612 24.6745 80.1865 31.674C79.4456 27.5058 76.9831 20.1884 76.5535 19.1237C76.5893 19.0333 76.6857 18.7926 76.7593 18.629C77.009 18.0733 77.0935 17.3297 77.0487 16.5048C76.8836 13.4541 74.9612 9.28084 73.1671 9.28084C71.6822 9.28084 71.3023 10.4969 71.3023 11.9973C71.3023 12.8557 71.8911 15.6555 72.7305 17.9728L75.2019 26.3101C76.1149 29.3476 76.637 32.7112 76.5286 34.3641C76.7593 37.3741 75.1929 42.4078 70.7832 42.4078C66.26 42.4078 64.1794 36.3775 64.3256 32.1535C64.4589 28.2962 65.4325 25.793 66.257 24.4399C65.6245 27.8624 65.3391 30.2883 65.3391 32.6655C65.3391 34.7369 65.8085 36.6335 66.5862 38.0995H66.5872C67.2844 39.859 68.8856 41.0912 70.7503 41.0912C73.2556 41.0912 75.2864 38.8695 75.2864 36.1286C75.4813 31.4962 71.3799 19.7312 71.3292 19.4509C70.7424 17.6619 70.1874 14.3714 70.1874 13.1971C70.1874 10.375 70.8886 8.3635 73.3411 8.3635C75.1531 8.3635 77.5201 10.9388 78.2452 16.5485L80.3397 16.5952C80.4978 15.8099 80.5823 14.9861 80.5823 14.1378C80.5823 8.65607 77.6564 4.21259 72.7543 4.21259C68.4311 4.21259 65.1213 7.99778 65.1213 13.4795C65.1213 15.3091 65.4624 17.5329 66.1436 19.0049L67.5211 21.5761L67.1929 21.9113L64.7274 20.1975C62.3346 22.5117 60.9671 26.048 60.5046 29.1434C59.0138 39.1153 64.613 45.5459 69.6683 45.7948C78.1706 46.2143 79.9697 39.7503 80.3188 35.5435C80.5764 40.626 81.0945 44.2628 81.3183 44.9486C82.648 44.785 83.3909 44.6661 84.289 44.6661C81.9409 30.6236 83.5988 20.3926 85.3253 8.53925ZM69.8294 27.6602C69.8294 27.6602 71.0437 32.0001 71.4018 33.5706C71.5509 34.2279 71.2108 34.8527 70.6986 34.9533C70.1864 35.0528 69.7071 34.5906 69.5469 33.9333C69.0755 31.9991 69.8294 27.6602 69.8294 27.6602Z" fill="#1E1E20"/>
</g>
<defs>
<clipPath id="clip0">
<rect x="59" y="3" width="41.8571" height="44" fill="white"/>
</clipPath>
</defs>
</svg>

<svg width="160" height="50" fill="none" xmlns="http://www.w3.org/2000/svg"><g clip-path="url(#clip0)"><path d="M100.571 45.365c-1.953-10.948-2.204-24.106-.746-39.107l.128-1.318h-5.047l-.096.918h-3.674l-.241.872c-.373 1.346-.636 2.8-.873 4.246-.002-.277-.004-.552-.004-.824 0-.232.001-.46.003-.687l.01-1.209h-3.479l.135-.917h-4.943l-.243.87a52.747 52.747 0 00-.428 1.63C79.828 5.666 76.716 3 72.67 3c-2.462 0-4.71 1.065-6.33 2.997-1.597 1.906-2.477 4.558-2.477 7.469 0 1.51.228 3.598.84 5.307l-.18-.124-.686.663c-2.331 2.254-3.999 5.766-4.578 9.637-.816 5.464.306 10.436 3.158 13.999 1.95 2.435 4.542 3.905 7.11 4.03 3.524.174 6.343-.743 8.38-2.726a9.898 9.898 0 001.756-2.332c.208 1.81.416 3.02.541 3.406l.304.93 1.61-.202c.906-.115 1.504-.19 2.17-.19h1.392l-.02-.127c.935.055 2.649.248 3.325.33 0 0 1.518.183 1.563.19l.02.188 1.135-.091c.762-.062 1.107-.03 1.545.011.315.03.673.063 1.194.063h.147l.01.071h1.018c.486 0 2.11.082 3.658.273l1.582.196-.286-1.603zm-22.835-26.23a.207.207 0 00.007-.018c.18-.4.294-.867.356-1.385l.037.001 1.528.035a90.453 90.453 0 00-.495 5.685 114.44 114.44 0 00-1.433-4.319z" fill="#fff"/><path d="M85.88 10.373s-3.248 17.498-.622 34.15c.95 0 3.869.353 3.869.353s-.748-4.08-.483-5.927c1.174 1.765 2.279.424 2.279.424s.345 2.61.69 5.785c1.433-.116 1.658.07 2.833.07-.329-3.404-1.192-9.03.345-36.266-2.556 15.1-2.487 28.717-5.596 28.223-4.766-4.022-3.315-26.812-3.315-26.812z" fill="#1E1E20"/><path d="M86.568 9.456h2.28s-.069 8.961.76 8.961c1.194-2.83 1.38-7.62 2.417-11.36h2.003s-2.613 28.505-4.49 27.73c-3.868-4.728-2.97-25.331-2.97-25.331zM95.963 6.14h2.695c-.967 9.949-1.796 25.119.76 39.442-1.66-.204-3.316-.282-3.8-.282-1.381-9.809-1.531-21.034.346-39.16zM85.325 8.54h-2.694c-2.1 7.488-2.57 16.134-2.445 23.134-.74-4.168-3.203-11.486-3.633-12.55.036-.09.133-.331.206-.495.25-.556.335-1.3.29-2.124-.165-3.05-2.088-7.224-3.882-7.224-1.485 0-1.865 1.216-1.865 2.716 0 .859.59 3.659 1.428 5.976l2.472 8.337c.913 3.038 1.435 6.401 1.327 8.054.23 3.01-1.336 8.044-5.746 8.044-4.523 0-6.604-6.03-6.457-10.255.133-3.857 1.107-6.36 1.931-7.713-.633 3.422-.918 5.848-.918 8.226 0 2.07.47 3.968 1.247 5.434h.001c.697 1.759 2.299 2.991 4.163 2.991 2.506 0 4.536-2.221 4.536-4.962.195-4.633-3.906-16.398-3.957-16.678-.587-1.79-1.142-5.08-1.142-6.254 0-2.822.702-4.833 3.154-4.833 1.812 0 4.18 2.575 4.904 8.184l2.095.047c.158-.785.242-1.609.242-2.457 0-5.482-2.926-9.925-7.828-9.925-4.323 0-7.633 3.785-7.633 9.267 0 1.83.341 4.053 1.023 5.525l1.377 2.571-.328.335-2.466-1.713c-2.392 2.314-3.76 5.85-4.222 8.945-1.491 9.972 4.108 16.403 9.163 16.652 8.503.42 10.302-6.045 10.65-10.252.258 5.083.776 8.72 1 9.406 1.33-.164 2.073-.283 2.971-.283-2.348-14.042-.69-24.273 1.036-36.127zM69.83 27.66s1.215 4.34 1.573 5.91c.149.658-.191 1.283-.703 1.383-.513.1-.992-.362-1.152-1.02-.471-1.934.282-6.273.282-6.273z" fill="#1E1E20"/></g><defs><clipPath id="clip0"><path fill="#fff" d="M59 3h41.857v44H59z"/></clipPath></defs></svg>
